assets/sponsors/vtex-logo-rgb-alpha.svg

<?xml version="1.0" encoding="UTF-8"?>
<svg width="400px" height="205px" viewBox="0 0 400 205" version="1.1" xmlns="http://www.w3.org/2000/svg" xmlns:xlink="http://www.w3.org/1999/xlink">
    <!-- Generator: Sketch 42 (36781) - http://www.bohemiancoding.com/sketch -->
    <title>Artboard</title>
    <desc>Created with Sketch.</desc>
    <defs></defs>
    <g id="Page-1" stroke="none" stroke-width="1" fill="none" fill-rule="evenodd">
        <g id="Artboard" fill-rule="nonzero" fill="#FF3366">
            <g id="vtex-logo" transform="translate(48.000000, 47.000000)">
                <path d="M220.35,41.34 L209.43,41.34 L209.43,78.72 C209.424558,79.4246582 208.854658,79.9945584 208.15,80 L199.74,80 C199.035342,79.9945584 198.465442,79.4246582 198.46,78.72 L198.46,41.34 L187.46,41.34 C187.126939,41.3535592 186.802636,41.2313586 186.561344,41.0013768 C186.320052,40.771395 186.182434,40.4533282 186.18,40.12 L186.18,33.5 C186.182434,33.1666718 186.320052,32.848605 186.561344,32.6186232 C186.802636,32.3886414 187.126939,32.2664408 187.46,32.28 L220.33,32.28 C221.039015,32.2459827 221.642298,32.7911719 221.68,33.5 L221.68,40.12 C221.642291,40.8207243 221.051369,41.3627732 220.35,41.34 Z" id="Shape"></path>
                <path d="M255.37,79.75 C251.064912,80.3657808 246.718536,80.6466236 242.37,80.59 C234.08,80.59 226.76,78.47 226.76,66.78 L226.76,45.45 C226.76,33.76 234.15,31.71 242.43,31.71 C246.745039,31.6508892 251.058116,31.9283973 255.33,32.54 C256.23,32.67 256.61,32.99 256.61,33.82 L256.61,39.82 C256.604558,40.5246582 256.034658,41.0945584 255.33,41.1 L241.83,41.1 C238.83,41.1 237.72,42.1 237.72,45.47 L237.72,51.31 L254.86,51.31 C255.564658,51.3154416 256.134558,51.8853418 256.14,52.59 L256.14,58.69 C256.134558,59.3946582 255.564658,59.9645584 254.86,59.97 L237.72,59.97 L237.72,66.78 C237.72,70.12 238.81,71.15 241.83,71.15 L255.37,71.15 C256.074658,71.1554416 256.644558,71.7253418 256.65,72.43 L256.65,78.43 C256.66,79.23 256.27,79.62 255.37,79.75 Z" id="Shape"></path>
                <path d="M303.83,80 L293.62,80 C292.907985,80.0528961 292.239543,79.6526319 291.95,79 L283.09,65 L275.09,78.74 C274.64,79.51 274.19,80.02 273.48,80.02 L264,80.02 C263.751694,80.0645194 263.496441,79.9964455 263.30328,79.8341903 C263.110119,79.671935 262.999008,79.4322637 263,79.18 C263.013093,79.0228688 263.057282,78.8699061 263.13,78.73 L277.06,55.54 L263,33.5 C262.927486,33.381618 262.883018,33.2482143 262.87,33.11 C262.917599,32.6036815 263.363065,32.2294895 263.87,32.27 L274.21,32.27 C274.92,32.27 275.43,32.91 275.82,33.49 L284.04,46.49 L292.04,33.49 C292.329916,32.8325425 292.938632,32.371279 293.65,32.27 L303.16,32.27 C303.666935,32.2294895 304.112401,32.6036815 304.16,33.11 C304.146982,33.2482143 304.102514,33.381618 304.03,33.5 L290.03,55.67 L304.6,78.67 C304.712594,78.8655039 304.777676,79.0847283 304.79,79.31 C304.67,79.75 304.34,80 303.83,80 Z" id="Shape"></path>
                <path d="M170.8,32.41 C170.320307,32.3993264 169.900642,32.7308621 169.8,33.2 L160.47,67.72 C160.34,68.43 160.15,68.72 159.57,68.72 C158.99,68.72 158.8,68.46 158.67,67.72 L149.37,33.2 C149.269358,32.7308621 148.849693,32.3993264 148.37,32.41 L139.19,32.41 C138.881856,32.4024272 138.587439,32.5373825 138.39204,32.7757702 C138.19664,33.0141579 138.122095,33.3293363 138.19,33.63 C138.19,33.63 149.58,73.2 149.7,73.63 C151.22,78.35 154.91,80.63 159.6,80.63 C164.099558,80.7914525 168.15216,77.9259768 169.5,73.63 C169.68,73.09 180.82,33.63 180.82,33.63 C180.884345,33.3307998 180.80814,33.0186083 180.613178,32.7827041 C180.418216,32.5467999 180.125964,32.4131593 179.82,32.42 L170.8,32.41 Z" id="Shape"></path>
                <path d="M118.77,0.32 L23.05,0.32 C19.5863153,0.351666779 16.3889012,2.1841531 14.6106802,5.15670157 C12.8324593,8.12925004 12.7299064,11.8131266 14.34,14.88 L23.92,33.12 L6.56,33.12 C4.34212938,33.0796434 2.26852073,34.2160272 1.10916104,36.1071813 C-0.050198645,37.9983354 -0.122159306,40.3618165 0.92,42.32 L31.72,100.52 C32.82523,102.610084 34.9956855,103.917585 37.36,103.917585 C39.7243145,103.917585 41.89477,102.610084 43,100.52 L51.36,84.75 L61.86,104.61 C63.5672111,107.834206 66.9167025,109.850719 70.565,109.850719 C74.2132975,109.850719 77.5627889,107.834206 79.27,104.61 L127.27,14.36 C128.859296,11.3894263 128.76395,7.80084814 127.019155,4.91885888 C125.274361,2.03686962 122.138857,0.288843161 118.77,0.32 L118.77,0.32 Z M76,38.45 L55,77.83 C54.2785005,79.1902007 52.8647101,80.0406475 51.325,80.0406475 C49.7852899,80.0406475 48.3714995,79.1902007 47.65,77.83 L26.92,38.83 C26.2804208,37.6297958 26.3177694,36.18196 27.018378,35.0163274 C27.7189867,33.8506948 28.9800187,33.1383594 30.34,33.14 L72.76,33.14 C74.0381403,33.1203257 75.2313827,33.778051 75.8971997,34.869251 C76.5630167,35.9604511 76.6021171,37.3223986 76,38.45 Z" id="Shape"></path>
            </g>
        </g>
    </g>
</svg>

<?xml version="1.0" encoding="UTF-8" standalone="no"?>
<svg
   xmlns:dc="http://purl.org/dc/elements/1.1/"
   xmlns:cc="http://creativecommons.org/ns#"
   xmlns:rdf="http://www.w3.org/1999/02/22-rdf-syntax-ns#"
   xmlns:svg="http://www.w3.org/2000/svg"
   xmlns="http://www.w3.org/2000/svg"
   xmlns:sodipodi="http://sodipodi.sourceforge.net/DTD/sodipodi-0.dtd"
   xmlns:inkscape="http://www.inkscape.org/namespaces/inkscape"
   width="400"
   height="150"
   viewBox="0 0 400 150"
   version="1.1"
   id="svg20"
   sodipodi:docname="vtex-logo-rgb-alpha.svg"
   inkscape:version="0.92.2 2405546, 2018-03-11">
  <metadata
     id="metadata24">
    <rdf:RDF>
      <cc:Work
         rdf:about="">
        <dc:format>image/svg+xml</dc:format>
        <dc:type
           rdf:resource="http://purl.org/dc/dcmitype/StillImage" />
        <dc:title>Artboard</dc:title>
      </cc:Work>
    </rdf:RDF>
  </metadata>
  <sodipodi:namedview
     pagecolor="#ffffff"
     bordercolor="#666666"
     borderopacity="1"
     objecttolerance="10"
     gridtolerance="10"
     guidetolerance="10"
     inkscape:pageopacity="0"
     inkscape:pageshadow="2"
     inkscape:window-width="1916"
     inkscape:window-height="1041"
     id="namedview22"
     showgrid="false"
     inkscape:zoom="1.1512195"
     inkscape:cx="61.885593"
     inkscape:cy="102.5"
     inkscape:window-x="0"
     inkscape:window-y="18"
     inkscape:window-maximized="0"
     inkscape:current-layer="svg20" />
  <!-- Generator: Sketch 42 (36781) - http://www.bohemiancoding.com/sketch -->
  <title
     id="title2">Artboard</title>
  <desc
     id="desc4">Created with Sketch.</desc>
  <defs
     id="defs6" />
  <g
     id="Page-1"
     style="fill:none;fill-rule:evenodd;stroke:none;stroke-width:1"
     transform="translate(0,-28.414798)">
    <g
       id="Artboard"
       style="fill:#ff3366;fill-rule:nonzero">
      <g
         id="vtex-logo"
         transform="translate(48,47)">
        <path
           d="m 220.35,41.34 h -10.92 v 37.38 c -0.005,0.704658 -0.57534,1.274558 -1.28,1.28 h -8.41 c -0.70466,-0.0054 -1.27456,-0.575342 -1.28,-1.28 V 41.34 h -11 c -0.33306,0.01356 -0.65736,-0.108641 -0.89866,-0.338623 C 186.32005,40.771395 186.18243,40.453328 186.18,40.12 V 33.5 c 0.002,-0.333328 0.14005,-0.651395 0.38134,-0.881377 0.2413,-0.229982 0.5656,-0.352182 0.89866,-0.338623 h 32.87 c 0.70901,-0.03402 1.3123,0.511172 1.35,1.22 v 6.62 c -0.0377,0.700724 -0.62863,1.242773 -1.33,1.22 z"
           id="Shape"
           inkscape:connector-curvature="0" />
        <path
           d="m 255.37,79.75 c -4.30509,0.615781 -8.65146,0.896624 -13,0.84 -8.29,0 -15.61,-2.12 -15.61,-13.81 V 45.45 c 0,-11.69 7.39,-13.74 15.67,-13.74 4.31504,-0.05911 8.62812,0.218397 12.9,0.83 0.9,0.13 1.28,0.45 1.28,1.28 v 6 c -0.005,0.704658 -0.57534,1.274558 -1.28,1.28 h -13.5 c -3,0 -4.11,1 -4.11,4.37 v 5.84 h 17.14 c 0.70466,0.0054 1.27456,0.575342 1.28,1.28 v 6.1 c -0.005,0.704658 -0.57534,1.274558 -1.28,1.28 h -17.14 v 6.81 c 0,3.34 1.09,4.37 4.11,4.37 h 13.54 c 0.70466,0.0054 1.27456,0.575342 1.28,1.28 v 6 c 0.01,0.8 -0.38,1.19 -1.28,1.32 z"
           id="path9"
           inkscape:connector-curvature="0" />
        <path
           d="m 303.83,80 h -10.21 c -0.71202,0.0529 -1.38046,-0.347368 -1.67,-1 l -8.86,-14 -8,13.74 c -0.45,0.77 -0.9,1.28 -1.61,1.28 H 264 c -0.24831,0.04452 -0.50356,-0.02356 -0.69672,-0.18581 C 263.11012,79.671935 262.99901,79.432264 263,79.18 c 0.0131,-0.157131 0.0573,-0.310094 0.13,-0.45 L 277.06,55.54 263,33.5 c -0.0725,-0.118382 -0.11698,-0.251786 -0.13,-0.39 0.0476,-0.506319 0.49306,-0.880511 1,-0.84 h 10.34 c 0.71,0 1.22,0.64 1.61,1.22 l 8.22,13 8,-13 c 0.28992,-0.657457 0.89863,-1.118721 1.61,-1.22 h 9.51 c 0.50694,-0.04051 0.9524,0.333681 1,0.84 -0.013,0.138214 -0.0575,0.271618 -0.13,0.39 l -14,22.17 14.57,23 c 0.11259,0.195504 0.17768,0.414728 0.19,0.64 -0.12,0.44 -0.45,0.69 -0.96,0.69 z"
           id="path11"
           inkscape:connector-curvature="0" />
        <path
           d="m 170.8,32.41 c -0.47969,-0.01067 -0.89936,0.320862 -1,0.79 l -9.33,34.52 c -0.13,0.71 -0.32,1 -0.9,1 -0.58,0 -0.77,-0.26 -0.9,-1 l -9.3,-34.52 c -0.10064,-0.469138 -0.52031,-0.800674 -1,-0.79 h -9.18 c -0.30814,-0.0076 -0.60256,0.127382 -0.79796,0.36577 -0.1954,0.238388 -0.26995,0.553566 -0.20204,0.85423 0,0 11.39,39.57 11.51,40 1.52,4.72 5.21,7 9.9,7 4.49956,0.161453 8.55216,-2.704023 9.9,-7 0.18,-0.54 11.32,-40 11.32,-40 0.0643,-0.2992 -0.0119,-0.611392 -0.20682,-0.847296 C 180.41822,32.5468 180.12596,32.413159 179.82,32.42 Z"
           id="path13"
           inkscape:connector-curvature="0" />
        <path
           d="M 118.77,0.32 H 23.05 C 19.586315,0.35166678 16.388901,2.1841531 14.61068,5.1567016 12.832459,8.12925 12.729906,11.813127 14.34,14.88 l 9.58,18.24 H 6.56 C 4.3421294,33.079643 2.2685207,34.216027 1.109161,36.107181 -0.05019865,37.998335 -0.12215931,40.361817 0.92,42.32 l 30.8,58.2 c 1.10523,2.09008 3.275685,3.39759 5.64,3.39759 2.364314,0 4.53477,-1.30751 5.64,-3.39759 l 8.36,-15.77 10.5,19.86 c 1.707211,3.22421 5.056702,5.24072 8.705,5.24072 3.648297,0 6.997789,-2.01651 8.705,-5.24072 l 48,-90.25 c 1.5893,-2.970574 1.49395,-6.5591519 -0.25085,-9.4411411 C 125.27436,2.0368696 122.13886,0.28884316 118.77,0.32 Z M 76,38.45 55,77.83 c -0.7215,1.360201 -2.13529,2.210648 -3.675,2.210648 -1.53971,0 -2.953501,-0.850447 -3.675,-2.210648 l -20.73,-39 C 26.280421,37.629796 26.317769,36.18196 27.018378,35.016327 27.718987,33.850695 28.980019,33.138359 30.34,33.14 h 42.42 c 1.27814,-0.01967 2.471383,0.638051 3.1372,1.729251 0.665817,1.0912 0.704917,2.453148 0.1028,3.580749 z"
           id="path15"
           inkscape:connector-curvature="0" />
      </g>
    </g>
  </g>
</svg>
